X:1
T:Title
%%score { 1 | 2 }
L:1/8
M:4/4
K:Eb
V:1 treble nm="Grand Piano"
V:2 bass 
V:1
 z4 z2[Q:1/4=100] B2 | A2 G2 [DF]2 [DG]2 | E6 [Ge]2 | [_Gd]2 [E=Gc]2 [D_GB]2 [CG=A]2 | %4
[M:3/4] [B,GB]6 |[M:1/4] [DGB]2 |[M:4/4] [DAc]2 [DAB]2 [EGe]2 [B,EG]2 | %7
 [B,_DA]2 [B,DG]2 [Cc]2 [B,=DF]2 | [B,EB]2 [G,E]2 [B,EG]2 [A,DF]2 |[M:3/4] [G,E]6 |] %10
V:2
 z4 z2 [E,G,E]2 | [E,CE]2 [E,B,E]2 [B,,A,]2 [B,,B,]2 | [C,G,]6 [C,B,]2 | [D,=A,]2 D,2 D,2 D,2 | %4
[M:3/4] G,6 |[M:1/4] G,2 |[M:4/4] F,2 F,2 E,2 E,2 | E,2 E,2 [A,,A,]2 A,2 | G,2 C,2 B,,2 B,,2 | %9
[M:3/4] E,6 |] %10

